X:1     %Music
T:King's Song from Hunton Sword-Dance
B:Journal of the English Folk Dance Society, 1928, Oxford University Press, London
Z:'M K'
S:Kit Wells
M:4/4     %Meter
L:1/8     %
K:D
D2 |D2 B2 B2 d2 |F2 FE D2 E2 |
w:*Make us room, for we are a-com-ing 
F2 BB B2 c2 |d2 d2 HB3
w:All for to let you un-der-stand
 A |B2 BB B2 d2 |F2 FE D2 E2 |
w: Of what and of late we have been a-do-ing 
F2 B2 A3 G | F2 E2 D2 z2 |]
w:Since we left yon for-eign land. 